src/img/icon-1.svg

<svg width="22" height="48" fill="none" xmlns="http://www.w3.org/2000/svg"><path d="M21 7v7.89c0 2.08-1.08 4.02-2.86 5.11L11 24M21 22v2c0 2.08-1.08 4.02-2.86 5.11l-7.14 4v-7M21 31.11v2c0 2.08-1.08 4.02-2.86 5.11l-7.14 4v-7M1 7v7.89c0 2.08 1.08 4.02 2.86 5.11L11 24M1 22v2c0 2.08 1.08 4.02 2.86 5.11l7.14 4v-7M1 31.11v2c0 2.08 1.08 4.02 2.86 5.11l7.14 4v-7" stroke="#6B3012" stroke-width="2" stroke-miterlimit="10" stroke-linecap="round"/><path d="M7 17c0 4.26 4 7 4 7s4-2.74 4-7-4-7-4-7-4 2.74-4 7ZM11 1v9M11 24v22.22" stroke="#6B3012" stroke-width="2" stroke-miterlimit="10" stroke-linecap="round"/><path d="M6 4v6M16 4v6" stroke="#F8AA2B" stroke-width="2" stroke-miterlimit="10" stroke-linecap="round"/></svg>

<svg width="22" height="48" viewBox="0 0 22 48" fill="none" xmlns="http://www.w3.org/2000/svg">
<path d="M21 7V14.89C21 16.97 19.92 18.91 18.14 20L11 24" stroke="#6B3012" stroke-width="2" stroke-miterlimit="10" stroke-linecap="round"/>
<path d="M21 22V24C21 26.08 19.92 28.02 18.14 29.11L11 33.11V26.11" stroke="#6B3012" stroke-width="2" stroke-miterlimit="10" stroke-linecap="round"/>
<path d="M21 31.11V33.11C21 35.19 19.92 37.13 18.14 38.22L11 42.22V35.22" stroke="#6B3012" stroke-width="2" stroke-miterlimit="10" stroke-linecap="round"/>
<path d="M1 7V14.89C1 16.97 2.07999 18.91 3.85999 20L11 24" stroke="#6B3012" stroke-width="2" stroke-miterlimit="10" stroke-linecap="round"/>
<path d="M1 22V24C1 26.08 2.07999 28.02 3.85999 29.11L11 33.11V26.11" stroke="#6B3012" stroke-width="2" stroke-miterlimit="10" stroke-linecap="round"/>
<path d="M1 31.11V33.11C1 35.19 2.07999 37.13 3.85999 38.22L11 42.22V35.22" stroke="#6B3012" stroke-width="2" stroke-miterlimit="10" stroke-linecap="round"/>
<path d="M7 17C7 21.26 11 24 11 24C11 24 15 21.26 15 17C15 12.74 11 10 11 10C11 10 7 12.74 7 17Z" stroke="#6B3012" stroke-width="2" stroke-miterlimit="10" stroke-linecap="round"/>
<path d="M11 1V10" stroke="#6B3012" stroke-width="2" stroke-miterlimit="10" stroke-linecap="round"/>
<path d="M11 24V46.22" stroke="#6B3012" stroke-width="2" stroke-miterlimit="10" stroke-linecap="round"/>
<path d="M6 4V10" stroke="#F8AA2B" stroke-width="2" stroke-miterlimit="10" stroke-linecap="round"/>
<path d="M16 4V10" stroke="#F8AA2B" stroke-width="2" stroke-miterlimit="10" stroke-linecap="round"/>
</svg>
